dist/svgs/medal.svg

<svg xmlns="http://www.w3.org/2000/svg" viewBox="0 0 512 512"><path d="M341 221q-7-14-15.5-33T309 152q-10-20-20-41-4-9-11-16V0h128v232q-23-3-43.5-6.5T341 221zm20 149l-4 4 1 6 19 117q5 23-15 11l-100-54-5-3-5 3-100 54q-20 12-15-11l19-117 1-6-4-4-81-82q-17-17 7-20l110-17 6-1 3-5 50-107q5-10 9-10t9 10l50 107 3 5 6 1 110 17q24 3 7 20zM225 111q-14 31-25 55-10 21-18 38t-9 17q-17 3-37.5 6t-27.5 4V0h128v95q-7 7-11 16z"/></svg>

<?xml version="1.0" encoding="UTF-8" standalone="no"?><svg   xmlns:svg="http://www.w3.org/2000/svg"   xmlns="http://www.w3.org/2000/svg"   version="1.1"   width="512"   height="512"   viewBox="0 0 512 512">  <path     d="M341 221Q334 207 325.5 188T309 152Q299 132 289 111Q285 102 278 95V0H406V232Q383 229 362.5 225.5T341 221zM361 370L357 374L358 380L377 497Q382 520 362 508L262 454L257 451L252 454L152 508Q132 520 137 497L156 380L157 374L153 370L72 288Q55 271 79 268L189 251L195 250L198 245L248 138Q253 128 257 128T266 138L316 245L319 250L325 251L435 268Q459 271 442 288zM225 111Q211 142 200 166Q190 187 182 204T173 221Q156 224 135.5 227T108 231V0H236V95Q229 102 225 111z"     id="medal" /></svg>
